Papirus/16x16/actions/distribute-horizontal-equal.svg

<?xml version="1.0" encoding="UTF-8" standalone="no"?>
<!--Created with Inkscape (http://www.inkscape.org/)-->
<svg id="svg3049" xmlns:rdf="http://www.w3.org/1999/02/22-rdf-syntax-ns#" xmlns="http://www.w3.org/2000/svg" height="16" width="16" version="1.1" xmlns:cc="http://creativecommons.org/ns#" xmlns:dc="http://purl.org/dc/elements/1.1/">
 <defs id="defs3051">
 </defs>
 <metadata id="metadata3054">
  <rdf:RDF>
   <cc:Work rdf:about="">
    <dc:format>image/svg+xml</dc:format>
    <dc:type rdf:resource="http://purl.org/dc/dcmitype/StillImage"/>
    <dc:title/>
   </cc:Work>
  </rdf:RDF>
 </metadata>
 <g id="layer1" transform="translate(-421.71 -531.79)">
  <g id="layer1-0" transform="matrix(.75 0 0 0.75 421.46 -241.23)">
   <g id="layer1-6" transform="translate(6.2938e-7 -.00020410)">
    <path id="path4154" opacity=".5" d="m2 1v4l3-2-3-2zm12 0l-3 2 3 2v-4zm-9 4v1 1h-1-1-2v6h2 1 1v2h2v-2-6-1-1h-2zm4 0v1 1 6 2h2v-2h1 1 2v-6h-2-1-1v-1-1h-2z" transform="matrix(1.3333 0 0 1.3333 .33333 1030.7)"/>
   </g>
  </g>
 </g>
</svg>

<?xml version="1.0" encoding="UTF-8" standalone="no"?>
<!--Created with Inkscape (http://www.inkscape.org/)-->
<svg xmlns:dc="http://purl.org/dc/elements/1.1/" xmlns:cc="http://creativecommons.org/ns#" xmlns:rdf="http://www.w3.org/1999/02/22-rdf-syntax-ns#" xmlns:svg="http://www.w3.org/2000/svg" xmlns="http://www.w3.org/2000/svg" xmlns:sodipodi="http://sodipodi.sourceforge.net/DTD/sodipodi-0.dtd" xmlns:inkscape="http://www.inkscape.org/namespaces/inkscape" width="16" height="16" id="svg3049" version="1.1" inkscape:version="0.91 r13725" sodipodi:docname="distribute-horizontal-equal.svg" inkscape:export-filename="/home/uri/.kde/share/icons/NITRUX-KDE/16x16/actions/view-right-new.png" inkscape:export-xdpi="30" inkscape:export-ydpi="30">
    <defs id="defs3051">
        <style type="text/css" id="current-color-scheme">
            .ColorScheme-Text { color:#4d4d4d; } .ColorScheme-Background { color:#eff0f1; } .ColorScheme-Highlight { color:#3daee9; } .ColorScheme-ViewText { color:#31363b; } .ColorScheme-ViewBackground { color:#fcfcfc; } .ColorScheme-ViewHover { color:#93cee9; } .ColorScheme-ViewFocus{ color:#3daee9; } .ColorScheme-ButtonText { color:#31363b; } .ColorScheme-ButtonBackground { color:#eff0f1; } .ColorScheme-ButtonHover { color:#93cee9; } .ColorScheme-ButtonFocus{ color:#3daee9; }
        </style>
    </defs>
    <sodipodi:namedview id="base" pagecolor="#000000" bordercolor="#666666" borderopacity="1.0" inkscape:pageopacity="0.0" inkscape:pageshadow="2" inkscape:zoom="29.85" inkscape:cx="-4.3724408" inkscape:cy="8.1506417" inkscape:document-units="px" inkscape:current-layer="layer1-6" showgrid="false" fit-margin-top="0" fit-margin-left="0" fit-margin-right="0" fit-margin-bottom="0" inkscape:window-width="1600" inkscape:window-height="847" inkscape:window-x="0" inkscape:window-y="30" inkscape:window-maximized="1" inkscape:showpageshadow="false" borderlayer="true" inkscape:snap-bbox="true" inkscape:snap-global="true" inkscape:object-nodes="true" showguides="false">
        <inkscape:grid type="xygrid" id="grid4085"/>
        <sodipodi:guide position="2.0000044,14.00003" orientation="12,0" id="guide4075"/>
        <sodipodi:guide position="2.0000044,2.0000296" orientation="0,12" id="guide4077"/>
        <sodipodi:guide position="14,9" orientation="-12,0" id="guide4079"/>
        <sodipodi:guide position="14.000004,14.00003" orientation="0,-12" id="guide4081"/>
    </sodipodi:namedview>
    <metadata id="metadata3054">
        <rdf:RDF>
            <cc:Work rdf:about="">
                <dc:format>
                    image/svg+xml
                </dc:format>
                <dc:type rdf:resource="http://purl.org/dc/dcmitype/StillImage"/>
                <dc:title/>
            </cc:Work>
        </rdf:RDF>
    </metadata>
    <g inkscape:label="Capa 1" inkscape:groupmode="layer" id="layer1" transform="translate(-421.71429,-531.79074)">
        <g transform="matrix(0.75,0,0,0.74999813,421.46429,-241.22897)" id="layer1-0" inkscape:label="Capa 1">
            <g transform="translate(6.2937501e-7,-2.041003e-4)" id="layer1-6" inkscape:label="Capa 1">
                <path style="display:inline;overflow:visible;visibility:visible;fill:#000000;fill-opacity:1;fill-rule:nonzero;stroke:none;stroke-width:2;marker:none;enable-background:accumulate;opacity:0.5" d="M 2 1 L 2 5 L 5 3 L 2 1 z M 14 1 L 11 3 L 14 5 L 14 1 z M 5 5 L 5 6 L 5 7 L 4 7 L 3 7 L 1 7 L 1 13 L 3 13 L 4 13 L 5 13 L 5 15 L 7 15 L 7 13 L 7 7 L 7 6 L 7 5 L 5 5 z M 9 5 L 9 6 L 9 7 L 9 13 L 9 15 L 11 15 L 11 13 L 12 13 L 13 13 L 15 13 L 15 7 L 13 7 L 12 7 L 11 7 L 11 6 L 11 5 L 9 5 z " transform="matrix(1.3333333,0,0,1.3333367,0.3333327,1030.6957)" id="path4154"/>
            </g>
        </g>
    </g>
</svg>
